X:1
T:Title
%%score { ( 1 3 ) | ( 2 4 ) }
L:1/8
Q:1/4=100
M:4/4
K:A
V:1 treble nm="Grand Piano"
V:3 treble 
V:2 bass 
V:4 bass 
V:1
 [CA]3 [DB] [CA]>[CE] [CA]>[DB] | [Ec]4 [CA]2 z2 | B3 B B>B c>B | A4 z4 | %4
w: Wm.~J.~Kirkpatrick * * * * *||||
 [CA]3 [CA] [CA]>[EA] B>c | [Fd]4 [Ec]2 z2 | [^DB]3 [DB] [Dc]>[DB] [DA]>F |[M:9/8] E6- E z z | %8
w: ||||
[M:4/4] [CA]4 .[CE]2 z2 | c4 .A2 z2 | d3 d d>c B>A |[M:9/8] .G3 z3 z3 |[M:4/4] [CEA]4 .[A,CE]2 z2 | %13
w: |||||
 [EAc]4 .[CEA]2 z2 | [B,B]3 c edc[B,FB] | .[CEA]2 .[DEG]2 [CEA]4 |] %16
w: |||
V:2
 [A,,E,]3 [A,,E,] [A,,E,]>[A,,A,] [A,,A,]>[A,,A,] | [A,,A,]4 [A,,E,]2 z2 | %2
 [E,G,D]3 [E,G,D] [E,G,D]>[E,G,D] [E,G,E]>[E,G,D] | z4 E2 z2 | %4
 [A,,E,]3 [A,,E,] [A,,E,]>[C,A,] [E,G,E]>[A,=G] | [D,A,]4 [A,,A,]2 z2 | %6
 [B,,F,]3 [B,,F,] [B,,F,]>[B,,F,] [B,,F,]>[B,,A,B,] |[M:9/8] [G,B,]2 A,- A, B,2- B, z z | %8
[M:4/4] [A,,A,]4 .[A,,A,]2 z2 | [A,E]4 .[A,CE]2 z2 | [B,G]4 z4[K:bass] |[M:9/8] .[B,E]3 z3 z3 | %12
[M:4/4] A,,4 .A,,2 z2 | A,4 .A,2 z2 | D,3 [C,^A,] [B,,B,]2 [C,A,]D, | z E z E A,,4 |] %16
V:3
 x8 | x8 | x8 | [A,C]6 z2 | x8 | x8 | x8 |[M:9/8] z2 C- C D2- D z z |[M:4/4] x8 | x8 | x8 | %11
[M:9/8] z z/ B,/[FA]- [FA] [GB]2- [GB] z z |[M:4/4] x8 | x8 | F8 | x8 |] %16
V:4
 x8 | x8 | x8 | A,,6 z2 | x8 | x8 | x8 |[M:9/8] E,6- E, z z |[M:4/4] x8 | x8 | %10
 E3- [B,E-G] [B,E-G]>[A,E-F] [G,-EG-][G,G]/[K:bass][F,B,^D]/ | %11
[M:9/8] E,2- [E,B,]- [E,-B,]/[E,-B,]/ [E,E]2- [E,E] z z |[M:4/4] x8 | x8 | x8 | E,2 E,2 z4 |] %16

